app/src/main/assets/symbols/tourist/museum.svg

<?xml version="1.0" encoding="UTF-8"?>
<svg version="1.1" viewBox="0 0 16 16" xmlns="http://www.w3.org/2000/svg" xmlns:cc="http://creativecommons.org/ns#" xmlns:dc="http://purl.org/dc/elements/1.1/" xmlns:rdf="http://www.w3.org/1999/02/22-rdf-syntax-ns#">
<metadata>
<rdf:RDF>
<cc:Work rdf:about="">
<dc:format>image/svg+xml</dc:format>
<dc:type rdf:resource="http://purl.org/dc/dcmitype/StillImage"/>
<dc:title/>
</cc:Work>
</rdf:RDF>
</metadata>
<rect width="16" height="16" fill="none" visibility="hidden"/>
<path transform="translate(1,1)" d="m7 1-6 2v1h12v-1zm-6 4v1h1v5h-1l-1 2h14l-1-2h-1v-5h1v-1zm4 1c0.49737 0 1 0.53259 1 1v4h-2v-4c0-0.52733 0.50263-1 1-1zm4 0c0.50336 0 1 0.47267 1 1v4h-2v-4c0-0.52733 0.49664-1 1-1z" fill="#734a08"/>
</svg>

<?xml version="1.0" encoding="UTF-8" standalone="no"?>
<svg
   xmlns:dc="http://purl.org/dc/elements/1.1/"
   xmlns:cc="http://creativecommons.org/ns#"
   xmlns:rdf="http://www.w3.org/1999/02/22-rdf-syntax-ns#"
   xmlns:svg="http://www.w3.org/2000/svg"
   xmlns="http://www.w3.org/2000/svg"
   version="1.1"
   width="16"
   height="16"
   viewBox="0 0 16 16"
   id="svg2">
  <metadata id="metadata8">
    <rdf:RDF>
      <cc:Work rdf:about="">
        <dc:format>image/svg+xml</dc:format>
        <dc:type rdf:resource="http://purl.org/dc/dcmitype/StillImage"/>
        <dc:title/>
      </cc:Work>
    </rdf:RDF>
  </metadata>
  <defs id="defs6"/>
  <rect width="16" height="16" x="0" y="0" id="canvas" style="fill:none;stroke:none;visibility:hidden"/>
  <path d="M 7,1 1,3 1,4 13,4 13,3 z m -6,4 0,1 1,0 0,5 -1,0 -1,2 14,0 -1,-2 -1,0 0,-5 1,0 0,-1 z M 5,6 C 5.497372,6 6,6.5325904 6,7 L 6,11 4,11 4,7 C 4,6.4726661 4.502628,6 5,6 z m 4,0 c 0.503364,0 1,0.4726661 1,1 l 0,4 -2,0 0,-4 C 8,6.4726661 8.496636,6 9,6 z" id="museum" style="fill:#734a08;fill-opacity:1;stroke:none" transform="translate(1,1)"/>
</svg>
